X: 1163
T: Isfahân Taksim
C: Tanburî Cemil Bey
O: Turkey
F: http://compmusic.upf.edu/node/140
N: isfahan--taksim--serbest----tanburi_cemil_bey
N: makam= isfahan
N: form= taksim
N: usul= serbest = 0/1
M: 0/1
L: 1/16
K: C _2/4B   
Q: 1/4=72
%%MIDI tuningsystem comma53
d3 ^c ^1/4B2 c2 d2 e2 f3 e  | d2 e2 d3 ^c ^1/4B c d4 z4 z4 =c2 d8  | \
w:   |   | 
d8 d/ c/ d c2 d2 c2  | 
w:   | 
d2 e2 d d e2 f3 e d2 e2  | d3 c _1/4B2 c2 B2 c2 d2 c2  | \
w:   |   | 
d4 e2 c4 d4 e2  | 
w:   | 
z4 d3 c _1/4B2 c2 c2 d2  | c _1/4B A2 B4 A2 c4 c B/ z/  | \
w:   |   | 
^1/4B2 ^c2 d2 e2 d2 e2 f2 g2  | 
w:   | 
e2 f2 d2 d e d2 c d c2 _1/4B c  | \
w:   | 
_1/4B2 A B A2 z4 A a g2 ^f g  | 
w:   | 
^f2 e =f e2 e3 ^f e2 f2 g a2 a2 g f2 e f e2 a4 g g  | \
w:   | 
^f4 e/ z/ d/ z/ z4 e2 f2 e2  | 
w:   | 
a2 z2 g ^f e f z e d d e2 e2  | e d c c c d c d e f e g e f e d  | 
w:   |   | 
d e d3/2 c/ _1/4B3 A B2 A G A z B c  | \
w:   | 
d e f e d e e d c c d8 d8 d c _1/4B A G2  | 
w:   | 
A4 _1/4B4 c4 d4  | z4 G z d2 z g3 f e2 f2 g g f f f f e f8  | 
w:   |   | 
e2 f8 e f e f g a  | g f e f e a g f e d z E F E F G  | 
w:   |   | 
A G _1/4B A A G F F E F G G F E/ z/ E F  | \
w:   | 
E D D4 c d e f e d c d4 c z d4 c z d2 e2 f2 g2 f2 e2 e2 d2 e2 d2 e2 d  | 
w:   | 
d2 c _1/4B2 c2 B2 z d c c d3  | c4 c4 c4 c4  | \
w:   |   | 
_1/4B A B z4 d2 g2 z f/ e/ d/ e/ f/ g/ a4 a g3 g f3 f e3 e  | 
w:   | 
d3 d c3 c2 _1/4B A B c2 d2  | e2 f2 g2 e2 d2 c/ _1/4B/ A2 G G/ A3/2  | \
w:   |   | 
G2 c2 _1/4B A B d2 c/ B/ A/ B/ d/ c2 B B A G A G G G A2 A4 A4 A4 z4 e/ e/ d/ c/ B/ A/ G2 A2 z2 z4 z4 z4 z4 g2 ^f2 a8 a8 a8 z4 f4 a2 _1/4b3 a g2 f2 e3/2  | 
w:   | 
^f/ e f g2 _1/4b2 a g f3 e d2 c _1/4B B2 B A/ z/ g3 f a2 g f =f e f g2 f e e f e d d ^c d2 e f e d c d e f d e f g g2 f2 e2 g g f e d c _7/8B A B2 c d e/ e/ d c B A4 A G A4 B c d e f g a =b g g/ ^f/ g f a8 a8 a a g g2 f/ e/ f g2 b2 a z4 z4 z4 z4 f g a _1/4b c'3 b _b/ a/ g b/ a/ a b/ a/ g f a g _1/4b a b/ a/ g f a2 g f e f g a z e f e f f e f f8 f e e d c _1/4B A G F E F G A B c d e f g g/ f e/ d a g/ g2 f/ f g f e3/2 f e f g  | 
w:   | 
a/ g/ ^f/ e/ d d2 g2 =f e d2 e f3 e  | \
w:   | 
f3 e d3 z c/ d3/2 e/ f e/ d d a2  | 
w:   | 
g f e e d d e d3/2 c/ _1/4B d c d c2 B/ A/  | \
w:   | 
_1/4B g/ g/ f/ f g a/ a/ g/ g g f e d c2 B2 c  | 
w:   | 
d e f2 e d e d d2 c _1/4B B B3/2 A/ G  | \
w:   | 
A _1/4B d c B A A A G A2 A8 A8 z4 B2 c2 d2 c2 e2 d4 d c3 c B3 B A3 A2 G2 e f e  | 
w:   | 
g e d e d d c _1/4B c B c d e e d c  | \
w:   | 
_1/4B A G2 A G4 c4 B4 d2 c B B2 c2 B A A G A8 z4 |
w:   | 


